symbols/web/local_laundry_service/materialsymbolssharp/local_laundry_service_wght200gradN25_20px.svg

<svg xmlns="http://www.w3.org/2000/svg" height="20" width="20"><path d="M4.292 17.375V2.625h11.416v14.75Zm.833-.854h9.75V3.479h-9.75ZM10 15.104q1.438 0 2.448-1.01 1.01-1.011 1.01-2.427 0-1.459-1-2.459t-2.458-1q-1.438 0-2.448 1t-1.01 2.438q0 1.437 1.02 2.448 1.021 1.01 2.438 1.01Zm.021-1q-.5 0-.979-.187-.48-.188-.813-.542l3.5-3.5q.333.354.531.823t.198.969q0 1.021-.708 1.729-.708.708-1.729.708ZM6.75 5.958q.333 0 .594-.26.26-.26.26-.594 0-.354-.26-.604-.261-.25-.594-.25-.354 0-.604.25t-.25.604q0 .334.25.594.25.26.604.26Zm2.479 0q.333 0 .594-.26.26-.26.26-.594 0-.354-.25-.604t-.604-.25q-.333 0-.594.25-.26.25-.26.604 0 .334.25.594.25.26.604.26ZM5.125 16.521V3.479v13.042Z"/></svg>

<svg xmlns="http://www.w3.org/2000/svg" height="20" width="20"><path d="M4.292 17.375V2.625H15.708V17.375ZM5.125 16.521H14.875V3.479H5.125ZM10 15.104Q11.438 15.104 12.448 14.094Q13.458 13.083 13.458 11.667Q13.458 10.208 12.458 9.208Q11.458 8.208 10 8.208Q8.562 8.208 7.552 9.208Q6.542 10.208 6.542 11.646Q6.542 13.083 7.562 14.094Q8.583 15.104 10 15.104ZM10.021 14.104Q9.521 14.104 9.042 13.917Q8.562 13.729 8.229 13.375L11.729 9.875Q12.062 10.229 12.26 10.698Q12.458 11.167 12.458 11.667Q12.458 12.688 11.75 13.396Q11.042 14.104 10.021 14.104ZM6.75 5.958Q7.083 5.958 7.344 5.698Q7.604 5.438 7.604 5.104Q7.604 4.75 7.344 4.5Q7.083 4.25 6.75 4.25Q6.396 4.25 6.146 4.5Q5.896 4.75 5.896 5.104Q5.896 5.438 6.146 5.698Q6.396 5.958 6.75 5.958ZM9.229 5.958Q9.562 5.958 9.823 5.698Q10.083 5.438 10.083 5.104Q10.083 4.75 9.833 4.5Q9.583 4.25 9.229 4.25Q8.896 4.25 8.635 4.5Q8.375 4.75 8.375 5.104Q8.375 5.438 8.625 5.698Q8.875 5.958 9.229 5.958ZM5.125 16.521V3.479V16.521Z"/></svg>
